X:1
T:Camp Sakima, CMD
T:Joshua Gill, 1891
T:Camp Sakima, CMD
T:Public Domain
C:Joshua Gill, 1891
Z:Public Domain
%%score ( 1 2 ) ( 3 4 )
L:1/8
M:3/4
K:D
V:1 treble 
V:2 treble 
V:3 bass 
V:4 bass 
V:1
 [DA]2 | [DF]D [DF]2 [FA]2 | [FA][EG] [EG]2 [EG]2 | [DF][DA] [Ec]2 [DB]2 | [DA]4 [EG]2 | %5
 [DF]D [DF]2 [FA]2 | [Gc][GB] [GB]2 ([DG][B,E]) | [A,D][DF] [DF]2 [CE]2 | D4 [FA]2 | %9
 [FA][^E^G] [FA]2 [Fd]2 | [Gd][Gc] [GB]2 [FA]2 | [DF][CG] [DA]2 [DB]2 | [CE]4 [EG]2 | %13
 [DF][FA] [Af]3 [Ae] | [Ad][Ac] [GB]2 [GB]2 | [FA][Fd] [Fd]2 (EG) | [Fd]4 |] %17
V:2
 x2 | x D x4 | x6 | x6 | x6 | x D x4 | x6 | x6 | D4 x2 | x6 | x6 | x6 | x6 | x6 | x6 | x4 c2 | %16
 x4 |] %17
V:3
 [D,F,]2 | [D,A,][D,F,] [D,A,]2 [D,A,]2 | [A,,A,][A,,A,] [A,,A,]2 [A,,A,]2 | %3
 [D,A,][D,F,] [D,G,]2 [D,G,]2 | [D,F,]4 [D,A,]2 | [D,A,][D,F,] [D,A,]2 [D,D]2 | %6
 [G,,D][G,,D] [G,,D]2 (B,G,) | [A,,F,][A,,A,] [A,,A,]2 [A,,G,]2 | [D,F,]4 [D,D]2 | %9
 [D,D][D,D] [D,D]2 [D,A,]2 | [G,B,][G,B,] [G,D]2 [D,D]2 | [D,A,][E,A,] [F,D]2 [G,B,]2 | %12
 A,4 [A,,A,]2 | [D,A,][D,A,] [D,A,]3 [E,C] | [F,D][F,D] [G,D]2 [G,D]2 | [A,D]A, A,2 [A,,A,]2 | %16
 [D,A,]4 |] %17
V:4
 x2 | x6 | x6 | x6 | x6 | x6 | x4 G,,2 | x6 | x6 | x6 | x6 | x6 | A,4 x2 | x6 | x6 | x A, A,2 x2 | %16
 x4 |] %17

